X: 37970
T: Spark's Rant
R: reel
M: 4/4
K: Dmajor
|:ABde f2 df|gefd B2 dB|ABde f2 ed|egfe d2 dB:|
d2 af adde|fded B2 dB|d2 af addf|egfe d2 dB|
d2 g2 afdf|gefd B2 dB|d2 ad fdad|faef dedB||

